X: 181
T: The market town
C: anon.
O: Ireland
B: Francis O'Neill: "The Dance Music of Ireland" (1907) no. 181
R: Double jig
Z: Transcribed by Frank Nordberg - http://www.musicaviva.com
F: http://www.musicaviva.com/abc/tunes/ireland/oneill-1001/oneill-1001-018
1.abc
M: 6/8
L: 1/8
K: A
E|E>FE ECE|E>FA A2f|e>dc Bcd|c>BA FGA|E>FE ECE|E>FG A2f|edc BAB|cAA A2::(
d/c/)|e>fe ece|
f2g a2f|e>dc Bcd|c>BA F2F|[1 e>fe ece|f2g a2f|edc BAB|cAA A2:|[2 Ace def|
cde fga|edc BAB|cAA A2|]
W:
W:
W: From Musica Viva - http://www.musicaviva.com
W: the Internet center for free sheet music downloads.


